contributed-vectors/myais.svg

<svg xmlns="http://www.w3.org/2000/svg" width="192" height="192" fill="none"><g clip-path="url(#a)"><path fill="#98DC9A" d="M172.6 29.5v133.6c0 5.3-4.3 9.5-9.5 9.5H29.5c-5.3 0-9.5-4.3-9.5-9.5V29.5c0-5.2 4.3-9.5 9.5-9.5h133.6c5.3 0 9.5 4.3 9.5 9.5Z"/><path fill="#fff" d="M70.548 118.788c15.24 14.923 25.753-1.552 25.894-1.658-8.608 4.622-18.38 5.504-30.445-4.021 1.552 2.257 3.07 3.986 4.55 5.679Z"/><path fill="#fff" d="M97.606 107.887c-10.266 4.022-22.86 8.044-38.982-1.905 5.75 4.798 23.671 22.825 43.991 5.68 4.057-3.422 7.585-6.068 12.065-7.867a10.563 10.563 0 0 0-2.363-.247c-4.339.036-9.208 2.187-14.711 4.339ZM110.7 127.9h-6l-1.1 3.1H101l5.3-14.7h2.7l5.3 14.7h-2.6l-1-3.1Zm-.7-2.1-2.3-6.8-2.3 6.8h4.6ZM115.9 116.4h2.4V131h-2.4v-14.6ZM120.5 128.1l2.1-1.2c.5 1.2 1.6 2.1 3.1 2.1 1.4 0 2.4-.7 2.4-1.9 0-3.1-6.9-1.9-6.9-6.8 0-2.6 2.1-4.1 4.4-4.1 1.7 0 3.3.8 4.2 2l-1.7 1.5c-.7-.8-1.5-1.3-2.5-1.3-1.1 0-2 .5-2 1.7 0 3 6.9 1.7 6.9 6.9 0 2.6-2.2 4.2-4.8 4.2-2.4 0-4.3-1.3-5.2-3.1ZM117.3 105.4c.9-.2 2-.6 3-1.4 1.9-1.3 2.8-3.2 3.3-4.7s.5-2.8.5-3.1v-2c-.8.3-1.6.5-2.5.6-.9.1-1.8.2-2.8.2h-1.2c-.4 0-.8-.1-1.1-.1-3.1-.4-5.5-1.6-7.2-3.5-1.7-1.9-2.6-4.4-2.6-7.5v-18h6.8v17.2c0 1.5.4 2.7 1 3.6.7.9 1.6 1.6 2.7 1.9.2.1.5.2.7.2h.8c1.5 0 2.9-.5 3.8-1.5.9-1 1.5-2.4 1.5-4.2V66h6.8v30.1c0 2.4-.4 4.5-1.2 6.5-.8 1.9-1.9 3.6-3.3 5-2.3 2.3-4.9 3.3-7 3.9M98.6 76.4v18.2h-6.8V77.1c0-3-2.2-5.4-5.1-5.4-3.1 0-5.1 2.6-5.1 5.4v17.4h-6.8V77.1c0-3-2.2-5.4-5.1-5.4-3.1 0-5.1 2.6-5.1 5.4v17.4h-6.8V66h6.8v2.9c1.8-2.1 4.2-3.5 7.1-3.5 3.2 0 6.1 1.8 8 4.5 1.9-2.8 4.9-4.5 8.6-4.5 6.1 0 10.3 4.7 10.3 11Z"/></g><defs><clipPath id="a"><path fill="#fff" d="M0 0h192v192H0z"/></clipPath></defs></svg>

<svg width="192" height="192" viewBox="0 0 192 192" fill="none" xmlns="http://www.w3.org/2000/svg">
<g clip-path="url(#clip0)">
<path d="M172.6 29.5V163.1C172.6 168.4 168.3 172.6 163.1 172.6H29.5C24.2 172.6 20 168.3 20 163.1V29.5C20 24.3 24.3 20 29.5 20H163.1C168.4 20 172.6 24.3 172.6 29.5Z" fill="#98DC9A"/>
<path d="M70.5478 118.788C85.7878 133.711 96.3006 117.236 96.4417 117.13C87.8339 121.752 78.062 122.634 65.997 113.109C67.5492 115.366 69.0662 117.095 70.5478 118.788Z" fill="white"/>
<path d="M97.6059 107.887C87.34 111.909 74.7459 115.931 58.6239 105.982C64.3742 110.78 82.2953 128.807 102.615 111.662C106.672 108.24 110.2 105.594 114.68 103.795C113.904 103.619 113.128 103.548 112.317 103.548C107.978 103.584 103.109 105.735 97.6059 107.887Z" fill="white"/>
<path d="M110.7 127.9H104.7L103.6 131H101L106.3 116.3H109L114.3 131H111.7L110.7 127.9ZM110 125.8L107.7 119L105.4 125.8H110Z" fill="white"/>
<path d="M115.9 116.4H118.3V131H115.9V116.4Z" fill="white"/>
<path d="M120.5 128.1L122.6 126.9C123.1 128.1 124.2 129 125.7 129C127.1 129 128.1 128.3 128.1 127.1C128.1 124 121.2 125.2 121.2 120.3C121.2 117.7 123.3 116.2 125.6 116.2C127.3 116.2 128.9 117 129.8 118.2L128.1 119.7C127.4 118.9 126.6 118.4 125.6 118.4C124.5 118.4 123.6 118.9 123.6 120.1C123.6 123.1 130.5 121.8 130.5 127C130.5 129.6 128.3 131.2 125.7 131.2C123.3 131.2 121.4 129.9 120.5 128.1Z" fill="white"/>
<path d="M117.3 105.4C118.2 105.2 119.3 104.8 120.3 104C122.2 102.7 123.1 100.8 123.6 99.3C124.1 97.8 124.1 96.5 124.1 96.2V95.2V94.2C123.3 94.5 122.5 94.7 121.6 94.8C120.7 94.9 119.8 95 118.8 95C118.4 95 118 95 117.6 95C117.2 95 116.8 94.9 116.5 94.9C113.4 94.5 111 93.3 109.3 91.4C107.6 89.5 106.7 87 106.7 83.9V74.9V65.9H110.1H113.5V74.5V83.1C113.5 84.6 113.9 85.8 114.5 86.7C115.2 87.6 116.1 88.3 117.2 88.6C117.4 88.7 117.7 88.8 117.9 88.8C118.2 88.8 118.4 88.8 118.7 88.8C120.2 88.8 121.6 88.3 122.5 87.3C123.4 86.3 124 84.9 124 83.1V74.5V66H127.4H130.8V81V96.1C130.8 98.5 130.4 100.6 129.6 102.6C128.8 104.5 127.7 106.2 126.3 107.6C124 109.9 121.4 110.9 119.3 111.5" fill="white"/>
<path d="M98.6 76.4V94.6H91.8V77.1C91.8 74.1 89.6 71.7 86.7 71.7C83.6 71.7 81.6 74.3 81.6 77.1V94.5H74.8V77.1C74.8 74.1 72.6 71.7 69.7 71.7C66.6 71.7 64.6 74.3 64.6 77.1V94.5H57.8V66H64.6V68.9C66.4 66.8 68.8 65.4 71.7 65.4C74.9 65.4 77.8 67.2 79.7 69.9C81.6 67.1 84.6 65.4 88.3 65.4C94.4 65.4 98.6 70.1 98.6 76.4Z" fill="white"/>
</g>
<defs>
<clipPath id="clip0">
<rect width="192" height="192" fill="white"/>
</clipPath>
</defs>
</svg>
